!!!!SEGMENT: 065-1-BH-004-violino.krn
!!!COM: Chopin, Fryderyk
!!!OTL: Sonata
!!!OPS: Op. 65
!!!PTL: Sonate pour Piano et Violoncelle
!!!PPR: Breitkopf & Härtel
!!!OMV: 4
!!!PPP: Leipzig
!!!AGN: Sonata
!!!NIFC-rismID: PL-Wbfc 4692/n
!!!NIFC-shelfmark: PL-Wbfc 4692/n
!!!OMD: Allegro.
!!!system-decoration: {(s1)}
**kern	**fing	**dynam
*part1	*part1	*part1
*staff1	*	*
*I"FINALE.	*	*
*clefG2	*	*
*k[b-e-]	*	*
*M2/2	*	*
*met(c|)	*	*
=1	=1	=1
!LO:TX:a:t=P:five bars break marked with a vertical and horizontal line:problem	!	!
1r	.	.
=2	=2	=2
1r	.	.
=3	=3	=3
1r	.	.
=4	=4	=4
1r	.	.
=5	=5	=5
1r	.	.
=6	=6	=6
4dd	.	f
(>8.aaL	.	.
16bb-Jk)	.	.
!LO:TX:t=P:note-head-side tuplet number:problem	!	!
(>12aaL	.	.
12gg#X	.	.
12ggJ)	.	.
(>12ggL	.	.
12eee-	.	.
12dddJ)	.	.
=7	=7	=7
(>12dddL	.	.
12ccc#X	.	.
12cccJ)	.	.
4ccc	.	.
(>12cccL	.	.
12bbn	.	.
12bb-XJ)	.	.
8.bb-L	.	.
16bb-Jk	.	.
=8	=8	=8
(>12bb-L	.	.
12ee	.	.
12aaJ)	.	.
(>8.aaL	.	.
16ff#Jk)	.	.
(>8.ggL	.	.
16ddJk)	.	.
(>8.ggL	.	.
16eeJk)	.	.
!!LO:LB:g=original
=9	=9	=9
(<12fnL	.	.
12g	.	.
12aJ)	.	.
[<4a	.	.
*Xtuplet	*	*
12aL]	.	<
12dd	.	.
12ffJ	.	.
[>4ff	.	[
=10	=10	=10
12ffL]	.	<
12ee	.	.
12ddJ	.	.
[<4a	.	.
12aL]	.	.
12dd	.	.
12ffJ	.	.
[>4ff	.	.
=11	=11	=11
12ffL]	.	.
12ee	.	.
12ddJ	.	.
[>4cc	.	.
12ccL]	.	.
12ff	.	.
12aaJ	.	.
[>4aa	.	.
*tuplet	*	*
=12	=12	=12
4aa]	.	.
(<[<4a	.	.
8aL]/	.	.
8cc)	.	.
(<8.cc	.	.
16bnJk)	.	.
=13	=13	=13
4a	.	.
4r	.	.
2r	.	.
!!LO:LB:g=original
=14	=14	=14
4r	.	.
(<[<4a	.	.
8aL]/	.	.
8cc)	.	.
(<8.cc	.	.
16bJk)	.	.
=15	=15	=15
4a	.	.
4r	.	.
2r	.	.
=16	=16	=16
4r	.	.
(<[<4a	.	.
8aL]/	.	.
8cc)	.	.
(<8.cc	.	.
16bJk)	.	.
=17	=17	=17
4a	.	.
(<[<4g	.	.
8gL]/	.	.
8b-X)	.	.
(<8.b-	.	.
16aJk)	.	.
=18	=18	=18
4g	.	.
(<[<4f	.	.
!LO:TX:a:Bi:t=rall.	!	!
8fL]/	.	.
8a-X)	.	.
(<8.a-	.	.
16gJk)	.	.
=19	=19	=19
!LO:TX:a:B:t=a tempo	!	!
4g	.	.
4G	.	.
(<4.A-X	.	.
8An)	.	.
!!LO:LB:g=original
=20	=20	=20
4d	.	.
(<2e-	.	>
4f)	.	]
=21	=21	=21
4f	.	.
4r	.	.
8r	.	.
(<8cL	.	.
8.f	.	.
16e-Jk)	.	.
=22	=22	=22
!	!	!LO:HP:a
(<8AnL	.	<
8B-J)	.	[[
!	!	!LO:HP:a
(<2d-X	.	>
4c)	.	]]
=23	=23	=23
4Bn	.	]
(>8.ddnL	.	.
16ee-Jk)	.	.
!LO:TX:t=P:note-head-side tuplet number:problem	!	!
(>12dd\L	.	<
12b	.	.
12ccJ	.	.
12ee-L	.	.
12bb-X	.	.
12aa-XJ)	.	[
=24	=24	=24
(>12ggL	.	.
12ff#X	.	.
12ffJ)	.	.
(>2ff	.	>
(>4ee-)	.	]
!!LO:LB:g=original
=25	=25	=25
8ee-L)	.	.
8dd	.	.
8ee-	.	.
8ffJ	.	<
4cc	.	.
4dd	.	[[
=26	=26	=26
(>2eent>	.	[
16qqddLL	.	.
16qqeeJJ	.	.
2ff)	.	.
=27	=27	=27
(>8ee-XL	.	.
8dd	.	.
!LO:TX:a:t=P:in the source, an irregular group without a buckle:problem	!	!
12ee-	.	.
12gg	.	.
12ffJ)	.	.
(>4cc	.	<
4dd)	.	[[
=28	=28	=28
1ee	.	>
=29	=29	=29
2.ee-X	.	.
(>8fL	.	.
8ee-J)	.	]
=30	=30	=30
4dd	.	.
(>8.ddL	.	f
16cc#XJk)	.	.
(>8.ddL	.	.
16cc#k)	.	.
(>8.dd	.	.
16ccJk)	.	.
!!LO:LB:g=original
=31	=31	=31
(<8bL	.	.
8a-X	.	.
8g	.	.
8a-J)	.	.
(<8fL/	.	.
8a-	.	.
8e-	.	.
8dJ)	.	.
=32	=32	=32
(>4d	.	.
4ff 4a-X)	.	.
(<8dL/	.	.
8f	.	.
8c	.	.
8BnJ)	.	.
=33	=33	=33
(>4B	.	.
4ff 4dd 4g)	.	.
2r	.	.
=34	=34	=34
2r	.	.
4r	.	.
(>[>4gg	.	p
=35	=35	=35
4gg]	.	.
8.ffL	.	.
16ggJk	.	.
2aa-X)	.	.
=36	=36	=36
(>4gg	.	.
8.ff\L	.	.
16ee-Jk)	.	.
2ff	.	.
!!LO:LB:g=original
=37	=37	=37
(>4ee-	.	.
8.dd\L	.	.
16ee-Jk	.	.
2ff)	.	.
=38	=38	=38
(>4ee-	.	.
8.dd\L	.	.
16ccJk	.	.
2dd)	.	.
=39	=39	=39
(>4ee	.	.
4ccc)	.	.
4ccc	.	.
4r	.	.
=40	=40	=40
4r	.	.
4c	.	.
(<8a-XL	.	.
8gJ	.	.
4f)	.	.
=41	=41	=41
2r	.	.
4G	.	.
!	!	!LO:HP:a
(<8.cL	.	>
16B-Jk)	.	]
=42	=42	=42
4B-	.	.
(<8fL	.	.
8b-J)	.	.
!LO:TX:t=P:note-head-side tuplet number:problem	!	!
(>12b-L	.	.
12cc	.	.
12b-J	.	.
8anL	.	.
8gJ)	.	.
!!LO:LB:g=original
=43	=43	=43
(>4dd	.	.
16ee-LL	.	.
16dd	.	.
16b-	.	.
16gJJ)	.	.
(<2f#Xt>	.	<
16qqeLL	.	.
16qqf#JJ)	.	.
=44	=44	=44
*	*^	*
4g	.	.	[
4r	.	.	.
!LO:TX:a:B:t=2da e 3za:dur=7wh:ext=ut:problem:text with extention lines	!	!	!
4gg	.	2	f
4gg	.	.	.
*	*v	*v	*
=45	=45	=45
4gg 4ee-	.	.
8ffL 8dd	.	.
8ggJ 8ee-	.	.
2aa-X 2cc	.	.
=46	=46	=46
4gg 4ee-	.	.
8ffL 8dd	.	.
8ee-J 8cc	.	.
2ff 2b	.	.
=47	=47	=47
4ee- 4cc	.	.
8ddL 8b	.	.
8ee-J 8cc	.	.
2ff 2a-X	.	.
=48	=48	=48
(>4ee- 4an	.	.
8ddL 8a	.	.
8ccJ 8d)	.	.
(>4dd 4g	.	.
4gg 4b)	.	.
!!LO:LB:g=original
=49	=49	=49
4gg 4b-X	.	.
8ffL 8a-X	.	.
8ggJ 8b-	.	.
2aa-X 2cc	.	.
=50	=50	=50
4gg 4b-	.	.
8ffL 8b-	.	.
8eeJ 8b-	.	.
2ff 2a-X	.	.
=51	=51	=51
(>4ff 4g	.	.
8ggL	.	.
8ffJ)	.	.
(>4ee-X 4g	.	.
4cc)	.	.
=52	=52	=52
2.bn: 2.d: 2.G:	.	.
4g	.	.
=53	=53	=53
4een 4g 4c	.	.
4r	.	.
4r	.	.
4A	.	.
=54	=54	=54
(<8dL	.	.
8f	.	.
8a	.	.
8cc#XJ	.	.
4dd)	.	.
4r	.	.
!!LO:LB:g=original
=55	=55	=55
4ff 4a 4d	.	.
4r	.	.
4r	.	.
4B	.	.
=56	=56	=56
(<8eL	.	.
8g#X	.	.
8b	.	.
8dd#XJ	.	.
4een)	.	.
4r	.	.
=57	=57	=57
(<1gn	.	.
=58	=58	=58
2.d)	.	.
4r	.	.
=59	=59	=59
4r	.	.
(<4c	.	.
4B	.	.
4c)	.	.
=60	=60	=60
(<2d	.	.
8G)	.	.
8r	.	.
(>4g	.	.
=61	=61	=61
8.eeL	.	.
16ddJk)	.	.
(>8.ddL	.	.
16ccJk)	.	.
(>8.eeL	.	.
16ddJk)	.	.
(>8.ddL	.	.
16ccJk)	.	.
!!LO:LB:g=original
=62	=62	=62
(>8.ccL	.	.
16bJk)	.	.
(<8.bL	.	.
16aJk)	.	.
(<8.bL	.	.
16gJk)	.	.
8.gL	.	<
(>16gJk	.	.
=63	=63	=63
8.eeL	.	[ >
16ddJk)	.	.
(>8.ddL	.	]
16ccJk)	.	.
(>8.eeL	.	.
16ddJk)	.	.
(>8.ddL	.	.
16ccJk)	.	.
=64	=64	=64
(>8.ccL	.	.
16bJk)	.	.
(<8.bL	.	.
16aJk)	.	.
(<8.bL	.	.
!LO:TX:a:Bi:t=riten.	!	!
16f#Jk)	.	.
(<8.f#L	.	.
16f#'<Jk)	.	.
=65	=65	=65
!LO:TX:a:B:t=a tempo	!	!
(>1f#X	.	.
=66	=66	=66
2.c#)	.	.
4r	.	.
!!LO:LB:g=original
=67	=67	=67
(>8.dd#XL	.	.
16cc#XJk)	.	.
(>8.cc#L	.	.
16bJk)	.	.
(>8.dd#L	.	.
16cc#Jk)	.	.
(>8.cc#L	.	.
16bJk)	.	.
=68	=68	=68
(<8.bL	.	.
16a#XJk)	.	.
(<8.a#L	.	.
16g#XJk)	.	.
(<8.a#L	.	.
16f#XJ)	.	.
(<8.f#L	.	.
16f#'<J)	.	.
=69	=69	=69
2r	.	.
(<8.a#XL	.	.
16f#Xk)	.	.
8.f#	.	.
(>16f#Jk	.	<
=70	=70	=70
4ff#X)	.	[
4r	.	.
(>8.aa#XL	.	<
16ff#k)	.	.
8.ff#	.	<
(>16ff#Jk	.	[[
=71	=71	=71
2fff#X)	.	f
2r	.	.
!!LO:PB:g=original
=72	=72	=72
2r	.	.
(>4a	.	.
8b-L	.	.
8ccJ)	.	.
=73	=73	=73
*Xtuplet	*	*
4f#	.	.
(>8.aaL	.	.
16bb-Jk)	.	.
(>12aaL	.	.
12gg#X	.	.
12ggnJ)	.	.
(>12ggL	.	.
12eee-	.	.
12dddJ)	.	.
=74	=74	=74
(>12dddL	.	.
12ccc#X	.	.
12cccJ)	.	.
(>8.cccL	.	.
16ccc'>Jk)	.	.
(>12cccL	.	.
12bb	.	.
12bb-XJ)	.	.
(>8.bb-L	.	.
16bb-'>Jk)	.	.
=75	=75	=75
(>12bb-L	.	.
12ee	.	.
12aaJ)	.	.
(>8.aaL	.	.
16ff#XJk)	.	.
(>8.ggL	.	.
16ddJk)	.	.
(>8.ggL	.	.
16eeJk)	.	.
*tuplet	*	*
!!LO:LB:g=original
=76	=76	=76
!LO:TX:t=P:note-head-side tuplet number:problem	!	!
(<12fnL	.	.
12g	.	.
12aJ)	.	.
4a	.	.
4b	.	.
(>12cc#XL	.	<
12dd	.	.
12eeJ)	.	[[
=77	=77	=77
(>1ff#X	.	f
=78	=78	=78
2.ddd)	.	.
4r	.	.
=79	=79	=79
*Xtuplet	*	*
4d	.	.
(<8.aL	.	.
16b-Jk)	.	.
(<12aL	.	<
12g#X	.	.
12gJ)	.	.
(>12gL	.	.
12ee-	.	.
12ddJ)	.	[
=80	=80	=80
(>12ddL	.	.
12cc#X	.	.
12ccJ)	.	.
(>8.ccL	.	.
16cc'>Jk)	.	.
(>12ccL	.	.
12b	.	.
12b-XJ)	.	.
(<8.dL	.	.
16d-'<Jk)	.	.
!!LO:LB:g=original
=81	=81	=81
(<12d-XL	.	.
12G	.	.
12cJ)	.	.
(<8.cL	.	.
16AJk)	.	.
8.B-L	.	.
16fJk	.	.
(<8.b-L	.	.
16gJk)	.	.
=82	=82	=82
(<12a-XL	.	.
12g	.	.
12g-XJ)	.	.
(<8.g-L	.	.
16g-'<Jk)	.	.
(<12g-L	.	.
12f	.	.
12eJ)	.	.
4e	.	.
=83	=83	=83
2G#X	.	.
4c#X	.	.
4en	.	.
=84	=84	=84
4a 4en 4A	.	.
(<8.eL	.	f
16f#Jk)	.	.
(<12eL	.	.
12d#X	.	.
12dJ)	.	.
(<12dL	.	.
12b	.	.
12aJ)	.	.
!!LO:LB:g=original
=85	=85	=85
(<12aL	.	.
12g#X	.	.
12gJ)	.	.
(<8.gL	.	.
16g'<Jk)	.	.
(<12gL	.	.
12f#X	.	.
12fJ)	.	.
(<8.fL	.	.
16f'<Jk)	.	.
=86	=86	=86
4cc 4en 4G	.	.
!LO:TX:a:Bi:t=più	!	!
(>8.eenL	.	.
!	!	!LO:DY:a:rj
16g#Jk)	.	f
(>8.eeL	.	.
16aJk)	.	.
(>8.aaL	.	.
16dd#Jk)	.	.
=87	=87	=87
4een	.	.
(<8.enL	.	.
16B-Jk)	.	.
(<8.eL	.	.
16AJk)	.	.
(<8.ccL	.	.
16f#XJk)	.	.
=88	=88	=88
4g	.	.
(>8.ggL	.	.
16ddJk)	.	.
(>8.ggL	.	.
16ccJk)	.	.
(>8.cccL	.	.
16ff#Jk)	.	.
!!LO:LB:g=original
=89	=89	=89
4gg	.	.
4c	.	.
4A	.	.
[<4Bn	.	.
=90	=90	=90
!	!	!LO:DY:a
4B]	.	sf
(>[>4bn	.	p
12bL]\	.	.
12a	.	.
12bJ	.	.
12ddL	.	.
12cc	.	.
12bJ)	.	.
*tuplet	*	*
=91	=91	=91
4b	.	.
4r	.	.
2r	.	.
=92	=92	=92
4r	.	.
(>[>4b	.	.
!LO:TX:t=P:note-head-side tuplet number:problem	!	!
12bL]\	.	.
12a	.	.
12bJ	.	.
16ddLL	.	.
16cc#X	.	.
16cc	.	.
16bJJ)	.	.
=93	=93	=93
4b	.	.
4r	.	.
2r	.	.
=94	=94	=94
4r	.	.
(>[>4ee	.	.
8eeL]	.	.
8gg)	.	>
(>8.gg	.	.
16ff#XJk)	.	]
!!LO:LB:g=original
=95	=95	=95
4ee	.	.
(>[>4b	.	.
8bL]	.	.
8dd)	.	.
(>8.dd	.	.
16cc#XJk)	.	.
=96	=96	=96
!LO:TX:a:Bi:t=rall.	!	!
4b	.	.
4r	.	.
2r	.	.
=97	=97	=97
4r	.	.
!	!	!LO:HP:t=cresc.
(<[<4g	.	<
8gL]	.	.
8b-X)	.	.
(<8.b-	.	.
16aJk)	.	.
=98	=98	=98
!LO:TX:a:B:t=a tempo	!	!
(<2a	.	f
4b-)/	.	.
(<8fL	.	.
8bnJ)	.	.
=99	=99	=99
4cc	.	.
(>4cc	.	.
4f	.	.
4g	.	.
=100	=100	=100
2g)	.	.
8r	.	.
(<8d	.	.
8.gL	.	.
16fJk)	.	.
=101	=101	=101
4f	.	.
(<2e-	.	>
4d)	.	]
!!LO:LB:g=original
=102	=102	=102
4c#X	.	.
(<8.eL	.	.
16fJk)	.	.
!LO:TX:t=P:note-head-side tuplet number:problem	!	!
(<12eL	.	.
12c#	.	.
12dJ)	.	.
(<12fL	.	.
12b-	.	.
12aJ)	.	.
=103	=103	=103
(<12aL	.	.
12g#X	.	.
12gJ)	.	.
2g	.	>
[<4f	.	]
=104	=104	=104
8fL]	.	.
8e	.	.
8f	.	.
8gJ	.	.
4d	.	.
4e	.	.
=105	=105	=105
(<2f#Xt>	.	.
4g)	.	.
4r	.	.
=106	=106	=106
(<8fL	.	.
8e	.	.
!LO:TX:a:t=P:in the source, an irregular group without a buckle:problem	!	!
12f	.	.
!	!	!LO:HP:a
12a	.	<
12gJ)	.	.
(<4d	.	.
4e)	.	[[
!!LO:LB:g=original
=107	=107	=107
1f#X	.	.
=108	=108	=108
(<[<4fn	.	>
8.fL]	.	.
16eJk)	.	.
4f	.	]
(>8.gL	.	<
16ffJk)	.	.
=109	=109	=109
4ee	.	[
(>8.eeL	.	f
16dd#XJk)	.	.
(>8.eeL	.	.
16dd#Jk)	.	.
(>8.eeL	.	.
16ddJk)	.	.
=110	=110	=110
8cc#XL	.	.
(>8b-	.	.
8a)	.	.
(<8b-J	.	.
8gL	.	.
8b-)	.	.
(<8f	.	.
8b-J)	.	.
=111	=111	=111
(>4e-	.	.
4gg 4b- 4g)	.	.
(<8e-L	.	.
8b-)	.	.
(<8d	.	.
8b-J)	.	.
!!LO:LB:g=original
=112	=112	=112
(>4c#X	.	.
4gg 4a 4en)	.	.
2r	.	.
=113	=113	=113
2r	.	.
4r	.	.
4aa	.	p
=114	=114	=114
4aa	.	.
8ggL	.	.
8aaJ	.	.
2bb-	.	.
=115	=115	=115
4aa	.	.
8ggL	.	.
8ffJ	.	.
2gg	.	.
=116	=116	=116
4ff	.	.
8eeL	.	.
8ffJ	.	.
2gg	.	.
=117	=117	=117
4ff	.	.
8eeL	.	.
8ddJ	.	.
2ee	.	.
=118	=118	=118
4aa	.	.
8ggL	.	.
8aaJ	.	.
2bb-	.	.
!!LO:LB:g=original
=119	=119	=119
4aa	.	.
8ggL	.	.
8ff#XJ	.	.
2gg	.	.
=120	=120	=120
(>4gg	.	.
8aaL	.	.
8eeJ)	.	.
8ffL	.	.
8gg	.	.
8aa	.	.
8bb-J	.	.
=121	=121	=121
8bb\L	.	.
8ccc	.	.
8ddd	.	.
8eeeJ	.	.
8fff\L	.	.
8gggJ	.	.
4aaa	.	.
=122	=122	=122
(>2aaa	.	.
2eee)	0	.
=123	=123	=123
2aa	0	.
2r	.	.
=124	=124	=124
!LO:TX:t=P:note-head-side tuplet number:problem	!	!
(>12dL\	.	.
12a	.	.
12ffJ)	.	.
(>12ffL	.	.
12een	.	.
12ddJ)	.	.
*Xtuplet	*	*
(<12GL	.	.
12d	.	.
12ddJ)	.	.
(>12ddL	.	.
12cc	.	.
12b-J)	.	.
!!LO:LB:g=original
=125	=125	=125
(<12aL	.	.
12g	.	.
12fJ)	.	.
(<12fL	.	.
12en	.	.
12dJ)	.	.
(<12AL	.	.
12B-	.	.
12AJ)	.	.
(<12cL	.	.
12B-	.	.
12AJ)	.	.
=126	=126	=126
(<12AL	.	.
12B-	.	.
12AJ)	.	.
(<12AL	.	.
12d	.	.
12AJ)	.	.
(<12AL	.	.
12g	.	.
12fJ)	.	.
(<12fL	.	.
12en	.	.
12dJ)	.	.
=127	=127	=127
(<12dL	.	.
12Bn	.	.
12B'<J)	.	.
(<12BL	.	.
12en	.	.
12e'<J)	.	.
(<12eL	.	.
12A	.	.
12A'<J)	.	.
(<12AL	.	.
12B-X	.	.
12AJ)	.	.
!!LO:LB:g=original
=128	=128	=128
(<12AL	.	.
12d)	.	.
(<12dJ	.	.
12e-XL	.	.
12d)	.	.
12d'<J	.	.
(<12dL	.	.
12c#X	.	.
12dJ	.	.
12fL	.	.
12en	.	.
12dJ)	.	.
=129	=129	=129
(<12dL	.	.
12A	.	.
12dJ)	.	.
(<12dL	.	.
12e-X	.	.
12cJ)	.	.
(<12B-L	.	.
12d	.	.
12f#XJ)	.	.
(<12gL	.	.
12A	.	.
12B-J)	.	.
=130	=130	=130
(<12AL	.	.
12en	.	.
12AJ)	.	.
12AL	.	.
12A	.	.
12AJ	.	.
(<12AL	.	.
12B-	.	.
12AJ	.	.
12cL	.	.
12B-	.	.
12AJ)	.	.
*tuplet	*	*
=131	=131	=131
2A	.	.
2r	.	.
!!LO:PB:g=original
=132	=132	=132
4ff# 4a 4d	.	f
4r	.	.
4r	.	.
4Bn	.	.
=133	=133	=133
(<8enL	.	.
8g	.	.
8b	.	.
8dd#XJ	.	.
4een)	.	.
4r	.	.
=134	=134	=134
4gg 4bn 4dn/	.	.
4r	.	.
4r	.	.
4c#X	.	.
=135	=135	=135
(>8f#XL	.	.
8a#X	.	.
8cc#X	.	.
8ee#XJ	.	.
4ff#X)	.	.
4r	.	.
=136	=136	=136
4r	.	.
(<4d	.	p
4c#X	.	.
4d)	.	.
=137	=137	=137
(<2en	.	.
8A)	.	.
8r	.	.
(>4a	.	<
=138	=138	=138
8.ff#XL	.	[
16eeJk)	.	.
(>8.eeL	.	.
16ddJk)	.	.
(>8.ff#L	.	.
16eeJk)	.	.
(>8.eeL	.	.
16ddJk)	.	.
!!LO:LB:g=original
=139	=139	=139
(>8.ddL	.	.
16cc#XJk)	.	.
(>8.cc#L	.	.
16bJk)	.	.
(>8.cc#L	.	.
16aJk)	.	.
8.aL	.	.
16AJk	.	.
=140	=140	=140
(<1cn	.	.
=141	=141	=141
(<2G)	.	.
8c)	.	.
8r	.	.
8r	.	.
8aa	.	.
=142	=142	=142
(>8.aaL	.	.
16ggJk)	.	.
(>8.ggL	.	.
16ffJk)	.	.
(>8.aaL	.	.
16ggJk)	.	.
(>8.ggL	.	.
16ffJk)	.	.
=143	=143	=143
(>8.ffL	.	.
16eeJk)	.	.
(>8.eeL	.	.
16ddJk)	.	.
(>8.eeL	.	.
16ccJk)	.	.
(>8.ccL	.	.
16cc'>Jk)	.	.
=144	=144	=144
2r	.	.
(<8.eL	.	.
16ck)	.	.
8.c	.	.
(<16cJk	.	.
!!LO:LB:g=original
=145	=145	=145
2cc)	.	<
8.eeL	.	.
16cck	.	.
8.cc	.	.
(>16ccJk	.	.
=146	=146	=146
4ccc)	.	.
4r	.	.
2r	.	.
=147	=147	=147
!LO:TX:a:t=P:'1' in the middle of the bar:problem	!	!
!LO:TX:a:B:t=1	!	!
1r	.	.
=148	=148	=148
!	!	!LO:HP:a
(<8.dL	.	>
16ck)	.	.
8.c	.	.
16cJk	.	]
!	!	!LO:HP:a
(<8.cL	.	>
16Bnk)	.	.
8.B	.	.
16bnJk	.	]]
=149	=149	=149
(<8.b-XL	.	.
16ak	.	.
8.d	.	.
16aJk)	.	.
4g	.	.
4r	.	.
=150	=150	=150
2r	.	.
4d	.	.
(<8GL	.	.
8B-J)	.	.
=151	=151	=151
4A	.	.
(>8.aL	.	.
16ffJk)	.	.
4ff	.	<
8eeL	.	.
8aaJ	.	[[
!!LO:LB:g=original
=152	=152	=152
(>4aa	.	.
4dd)	.	<
4cc 4d	.	.
4cc 4d	.	.
=153	=153	=153
4cc 4d 4A	.	[
4r	.	.
4b- 4d 4G	.	.
4r	.	.
=154	=154	=154
4dd 4en 4G#X	.	.
4r	.	.
4cc 4e 4A	.	.
4r	.	.
=155	=155	=155
!LO:TX:t=P:note-head-side tuplet number:problem	!	!
(>12ffL	.	.
12ee	.	.
12ee-XJ)	.	.
[>4ee-	.	.
8.ee-L]	.	.
16ee-k	.	.
(>8.ee-	.	.
16ee-'>Jk)	.	.
=156	=156	=156
4dd	.	.
(>8.dd\L	.	.
16ggJk)	.	.
(>8.gg\L	.	<
16bk)	.	.
(>8.cc	.	.
16ggJk)	.	.
=157	=157	=157
(>8.gg\L	.	.
16ak)	.	.
(>8.b-X	.	.
16ggJk)	.	.
(>8.gg\L	.	.
16ak	.	.
8.ee-^>	.	.
16ddJk)	.	.
!!LO:LB:g=original
=158	=158	=158
4dd	.	.
(<[<4g	.	.
8gL]	.	.
8b-)	.	.
(<8.b-	.	.
16aJk)	.	.
=159	=159	=159
12ee-L	.	.
12dd	.	.
12b-J	.	.
(<[<4g	.	.
8gL]	.	.
8b-)	.	.
(<8.b-	.	<
16aJk)	.	[
=160	=160	=160
2ee	.	.
2r	.	.
!!LO:LB:g=original
=161	=161	=161
4c#X	.	.
8enL	.	.
8gJ	.	.
8b-L	.	.
8cc#	.	.
8een	.	.
8ggJ	.	.
=162	=162	=162
*	*^	*
8bb-L	.	.	.
8cc#	.	.	.
8een	.	2	.
8ggJ	.	.	.
8bb-L	.	1	.
8ccc#	.	3	.
8eeen	.	1	.
8gggJ	.	.	.
*	*v	*v	*
=163	=163	=163
4bbb-	.	.
4r	.	.
2r	.	.
=164	=164	=164
!LO:TX:a:t=P:'1' in the middle of the bar:problem	!	!
!LO:TX:a:B:t=1	!	!
1r	.	.
*kcancel	*	*
!!LO:LB:g=original
=165||;>	=165||	=165||
*k[f#]	*	*
!LO:TX:b:Bi:t=dolce	!	!
(<8.bL	.	.
16aJk)	.	.
(<8.aL	.	.
16gJk)	.	.
(<8.bL	.	.
16aJk)	.	.
(<8.aL	.	.
16gJk)	.	.
=166	=166	=166
(>8.eeL	.	.
16ddJk)	.	.
(>8.ddL	.	.
16ccJk)	.	.
(>8.eeL	.	.
16ddJk)	.	.
(>8.ddL	.	.
16ccJk)	.	.
=167	=167	=167
[>1gg	.	<
=168	=168	=168
2.gg]	.	[ >
!LO:TX:t=P:note-head-side tuplet number:problem	!	!
12a\L	.	.
12b	.	.
12ccJ	.	]
=169	=169	=169
[>(>2dd	.	.
8ddL]	.	.
8ff)	.	.
(>8.ff	.	.
16eeJk)	.	.
=170	=170	=170
(>8ddL	.	.
8ccJ)	.	.
(>[>4aa	.	.
8aaL]	.	.
8cc#X)	.	.
(>8.dd	.	.
16ccJk)	.	.
!!LO:LB:g=original
=171	=171	=171
[>2b	.	.
8bL]	.	.
8ccJ	.	.
(>12bL	.	.
12a	.	.
12eeJ)	.	.
=172	=172	=172
(<4ee	.	.
8f#L	.	.
8eJ	.	.
8dL	.	.
8f#	.	.
8b	.	.
8aJ)	.	.
=173	=173	=173
*Xtuplet	*	*
4g	.	.
(<12dL	.	f
12e-X	.	.
12enJ	.	.
4f)	.	.
(<12cL	.	.
12d-X	.	.
12dnJ	.	.
=174	=174	=174
4e-X)	.	.
(<12B-XL	.	.
12Bn	.	.
12cJ	.	.
8d-XL	.	<
8fJ)	.	.
(<4a-X	.	.
=175	=175	=175
8g#X'<)	.	[
8r	.	.
12enL	.	.
12f#X	.	.
12g#J	.	.
12a\L	.	.
12b	.	.
12ccJ	.	.
12dd\L	.	.
12ee	.	.
12ff#J	.	.
!!LO:LB:g=original
=176	=176	=176
(>8aaL	.	.
8ggJ)	.	.
(>12dd#XL	.	.
12ee	.	.
12ggJ)	.	.
(>12bL	.	.
12cc	.	.
12eeJ	.	.
12ddL	.	.
12cc#X	.	.
12ccJ)	.	.
=177	=177	=177
4b	.	.
2e	.	.
(<8.fnL	.	.
16eJk)	.	.
=178	=178	=178
4d#X	.	.
(<8.e-L	.	.
16dJk)	.	.
4c#X	.	.
(<8.d-XL	.	.
16cJk)	.	.
=179	=179	=179
4Bn	.	.
12eL	.	.
12f#	.	.
12g#J	.	.
12aL	.	.
12b	.	.
12ccJ	.	.
12ddL	.	.
12ee	.	.
12ff#J	.	.
!!LO:LB:g=original
=180	=180	=180
12ggL	.	.
12aa	.	.
12bbJ	.	.
12ccL	.	.
12dd	.	.
12eeJ	.	.
12ff#L	.	.
12gg	.	.
12aaJ	.	.
12bL	.	.
12cc#X	.	.
12dd#XJ	.	.
=181	=181	=181
12eeL	.	.
12ff#	.	.
12ggJ	.	.
12aaL	.	.
12bb	.	.
12cccJ	.	.
12ddd\L	.	.
12eee	.	.
12fff#J	.	.
8ggg	.	.
16r	.	.
16A	.	.
=182	=182	=182
[<4A	.	.
12AL]	.	.
12B	.	.
12AJ	.	.
12BL	.	.
12A	.	.
12BJ	.	.
12AL	.	.
12d	.	.
12AJ	.	.
=183	=183	=183
4G	.	.
12GL	.	.
12G	.	.
12GJ	.	.
[<2G	.	.
*tuplet	*	*
=184	=184	=184
4G]	.	.
!LO:TX:a:t=P:stem-side tuplet number:problem	!	!
12GL	.	.
12G	.	.
12GJ	.	.
[<2G	.	.
!!LO:LB:g=original
=185	=185	=185
4d 4G]	.	.
(>4g 4G	.	.
4f# 4G	.	.
4g) 4G	.	.
=186	=186	=186
(>4f# 4G	.	.
4g 4G	.	.
4a 4G	.	.
4dd 4G)	.	.
=187	=187	=187
(>4f# 4G	.	.
4g 4G	.	.
4f# 4G	.	.
4g 4G)	.	.
=188	=188	=188
(>4f# 4G	.	.
4g 4G	.	.
4a 4G	.	.
4dd) 4G	.	.
=189	=189	=189
!LO:S:s=1:note:problem:note-level slur	!	!
(>2a 2G	.	.
!LO:TX:b:Bi:t=rall.	!	!
!LO:S:s=1:note:problem:note-level slur	!	!
2dd) 2G	.	.
=190	=190	=190
!LO:S:s=1:note:problem:note-level slur	!	!
(>2a 2G	.	.
!LO:S:s=1:note:problem:note-level slur	!	!
2dd) 2G	.	.
=191	=191	=191
!LO:TX:b:B:t=a tempo	!	!LO:DY:rj
(<8.bL/	.	f
16gk)	.	.
8.g	.	.
(>16gJk	.	.
2gg)	.	.
=192	=192	=192
8.bbL	.	<
16ggk	.	.
8.gg	.	.
(>16ggJk	.	.
2ggg)	.	[
!!LO:LB:g=original
=193	=193	=193
4ggg 4bb	.	.
8gggL 8bb	.	.
8gggJ 8bb	.	.
(>8gggL 8bb	.	.
8ddd 8gg)	.	.
8ddd'> 8gg	.	.
8ddd'>J 8gg	.	.
=194	=194	=194
(>8dddL 8bb	.	.
8ddd 8gg)	.	.
8ddd'> 8gg	.	.
8ddd'>J 8gg	.	.
(>8dddL 8gg	.	.
8bb 8gg)	.	.
8bb'> 8gg	.	.
8bb'>J 8gg	.	.
=195	=195	=195
(>8bbL 8gg	.	.
8bb 8dd)	.	.
8bb'> 8dd	.	.
8bb'>J 8dd	.	.
(>8bbL 8dd	.	.
8bb 8gg)	.	.
(>8bb 8gg	.	.
8bbJ 8dd)	.	.
=196	=196	=196
(>8bbL 8dd	.	.
8bb 8gg)	.	.
(>8bb 8gg	.	.
8bbJ 8dd)	.	.
(>8bbL 8dd	.	.
8dd 8g)	.	.
8dd 8g	.	.
8ddJ 8g	.	.
=197	=197	=197
4dd 4g	.	.
4G	.	.
4B	.	.
4d	.	.
=198	=198	=198
4g	.	.
4r	.	.
4cc 4e-X 4G	.	.
4r	.	.
=199	=199	=199
4bb 4b 4d 4G	.	.
4r	.	.
2r	.	.
==	==	==
*-	*-	*-
!!title: @{OTL}; @{OPS} @{ONM} publisher: @{PPR}
!!!RDF**kern: > = above
!!!RDF**kern: < = below
!!!RDF**kern: N = linked
!!!RDF**kern: i = editorial accidental, bracket
!!!RDF**dynam: < = "cresc.", fontstyle= "bold-italic"
!!!RDF**dynam: > = "dim.", fontstyle= "bold-italic"
!!!ENC: Wojciech Jakubiak-Danek
!!!END: 2020-04-27
!!!EED:
!!!EST:
